icons/communication/email-alert-24.svg

<svg width="24" height="24" viewBox="0 0 24 24" fill="none" xmlns="http://www.w3.org/2000/svg">
<g clip-path="url(#clip0_262_336)">
<path fill-rule="evenodd" clip-rule="evenodd" d="M0 4.75C0 3.7835 0.783502 3 1.75 3H22.25C23.2165 3 24 3.7835 24 4.75V11.375C24 11.7892 23.6642 12.125 23.25 12.125C22.8358 12.125 22.5 11.7892 22.5 11.375V7.18716L12.7516 11.8231C12.276 12.0492 11.724 12.0492 11.2484 11.8231L1.5 7.18715V18.75C1.5 18.8881 1.61193 19 1.75 19H9.25C9.66421 19 10 19.3358 10 19.75C10 20.1642 9.66421 20.5 9.25 20.5H1.75C0.783502 20.5 0 19.7165 0 18.75V4.75ZM1.5 5.52618L11.8926 10.4685C11.9606 10.5008 12.0394 10.5008 12.1074 10.4685L22.5 5.52618V4.75C22.5 4.61193 22.3881 4.5 22.25 4.5H1.75C1.61193 4.5 1.5 4.61193 1.5 4.75V5.52618Z" fill="black"/>
<path d="M19.5303 12.2197C19.3897 12.079 19.1989 12 19 12C18.8011 12 18.6103 12.079 18.4697 12.2197C18.329 12.3603 18.25 12.5511 18.25 12.75V17.75C18.25 17.9489 18.329 18.1397 18.4697 18.2803C18.6103 18.421 18.8011 18.5 19 18.5C19.1989 18.5 19.3897 18.421 19.5303 18.2803C19.671 18.1397 19.75 17.9489 19.75 17.75V12.75C19.75 12.5511 19.671 12.3603 19.5303 12.2197Z" fill="black"/>
<path d="M19.7071 21.7071C19.5196 21.8946 19.2652 22 19 22C18.7348 22 18.4804 21.8946 18.2929 21.7071C18.1054 21.5196 18 21.2652 18 21C18 20.7348 18.1054 20.4804 18.2929 20.2929C18.4804 20.1054 18.7348 20 19 20C19.2652 20 19.5196 20.1054 19.7071 20.2929C19.8946 20.4804 20 20.7348 20 21C20 21.2652 19.8946 21.5196 19.7071 21.7071Z" fill="black"/>
</g>
<defs>
<clipPath id="clip0_262_336">
<rect width="24" height="24" fill="white"/>
</clipPath>
</defs>
</svg>

<svg xmlns="http://www.w3.org/2000/svg" width="24" height="24"><path fill-rule="evenodd" d="M0 4.75C0 3.784.784 3 1.75 3h20.5c.966 0 1.75.784 1.75 1.75v6.625a.75.75 0 01-1.5 0V7.187l-9.748 4.636a1.75 1.75 0 01-1.504 0L1.5 7.187V18.75c0 .138.112.25.25.25h7.5a.75.75 0 010 1.5h-7.5A1.75 1.75 0 010 18.75v-14zm1.5.776l10.393 4.943a.25.25 0 00.214 0L22.5 5.526V4.75a.25.25 0 00-.25-.25H1.75a.25.25 0 00-.25.25v.776z"/><path d="M19.53 12.22a.75.75 0 00-1.28.53v5a.75.75 0 101.5 0v-5a.75.75 0 00-.22-.53zm.177 9.487a1 1 0 11-1.414-1.414 1 1 0 011.414 1.414z"/></svg>
